static/assets/img/icons/theme/files/uploaded-file.svg

<svg height="24" viewBox="0 0 24 24" width="24" xmlns="http://www.w3.org/2000/svg"><g fill="none" fill-rule="evenodd"><path d="m0 0h24v24h-24z" opacity="0"/><g fill="#000"><path d="m5.85714286 2h7.87926854c.3546848 0 .6978952.12568431.9686994.35473959l4.7635886 4.02920201c.3369538.28500673.5313006.70393663.5313006 1.14526041v12.55413129c0 1.7905418-.0204479 1.9166667-1.8571429 1.9166667h-12.28571424c-1.83669499 0-1.85714286-.1261249-1.85714286-1.9166667v-16.16666663c0-1.79054178.02044787-1.91666667 1.85714286-1.91666667z" fill-rule="nonzero" opacity=".3"/><path d="m8.95128003 13.8153448h1.95647347v2.0076713c0 .2761423.2238577.5.5.5h1.0232987c.2761424 0 .5-.2238577.5-.5v-2.0076713h1.9564735c.2761424 0 .5-.2238577.5-.5 0-.1183117-.0419537-.2327903-.1184032-.323085l-2.9681228-3.50566108c-.1784349-.21075011-.4939316-.23694678-.7046817-.0585119-.0210872.01785377-.0406582.03742474-.0585119.0585119l-2.96812289 3.50566108c-.17843488.2107501-.15223821.5262469.0585119.7046818.09029468.0764494.20477329.1184032.32308492.1184032z"/></g></g></svg>

<svg width="24px" height="24px" viewBox="0 0 24 24" version="1.1" xmlns="http://www.w3.org/2000/svg" xmlns:xlink="http://www.w3.org/1999/xlink">
    <title>Icon For Uploaded-file</title>
    <g stroke="none" stroke-width="1" fill="none" fill-rule="evenodd">
        <polygon points="0 0 24 0 24 24 0 24" opacity="0"></polygon>
        <path d="M5.85714286,2 L13.7364114,2 C14.0910962,2 14.4343066,2.12568431 14.7051108,2.35473959 L19.4686994,6.3839416 C19.8056532,6.66894833 20,7.08787823 20,7.52920201 L20,20.0833333 C20,21.8738751 19.9795521,22 18.1428571,22 L5.85714286,22 C4.02044787,22 4,21.8738751 4,20.0833333 L4,3.91666667 C4,2.12612489 4.02044787,2 5.85714286,2 Z" fill="#000000" fill-rule="nonzero" opacity="0.3"></path>
        <path d="M8.95128003,13.8153448 L10.9077535,13.8153448 L10.9077535,15.8230161 C10.9077535,16.0991584 11.1316112,16.3230161 11.4077535,16.3230161 L12.4310522,16.3230161 C12.7071946,16.3230161 12.9310522,16.0991584 12.9310522,15.8230161 L12.9310522,13.8153448 L14.8875257,13.8153448 C15.1636681,13.8153448 15.3875257,13.5914871 15.3875257,13.3153448 C15.3875257,13.1970331 15.345572,13.0825545 15.2691225,12.9922598 L12.3009997,9.48659872 C12.1225648,9.27584861 11.8070681,9.24965194 11.596318,9.42808682 C11.5752308,9.44594059 11.5556598,9.46551156 11.5378061,9.48659872 L8.56968321,12.9922598 C8.39124833,13.2030099 8.417445,13.5185067 8.62819511,13.6969416 C8.71848979,13.773391 8.8329684,13.8153448 8.95128003,13.8153448 Z" fill="#000000"></path>
    </g>
</svg>
